svgs/google_slides.svg

<svg width="192" height="192" viewBox="0 0 192 192" fill="none" xmlns="http://www.w3.org/2000/svg">
<path d="M96 94H68V113V132H96H124V113V94H96Z" stroke="black" stroke-width="12" stroke-linejoin="round"/>
<path fill-rule="evenodd" clip-rule="evenodd" d="M52 28C50.8954 28 50 28.8954 50 30V162C50 163.105 50.8954 164 52 164H140C141.105 164 142 163.105 142 162V62H114C110.686 62 108 59.3137 108 56V28H52ZM120 36.4853L133.515 50H120V36.4853ZM38 30C38 22.268 44.268 16 52 16H114C115.591 16 117.117 16.6321 118.243 17.7574L152.243 51.7574C153.368 52.8826 154 54.4087 154 56V162C154 169.732 147.732 176 140 176H52C44.268 176 38 169.732 38 162V30Z" fill="black"/>
</svg>

<svg xmlns="http://www.w3.org/2000/svg" width="192" height="192" fill="none" xmlns:v="https://vecta.io/nano"><path d="M96 94H68v19 19h28 28v-19-19H96z" stroke="#000" stroke-width="12" stroke-linejoin="round"/><path fill-rule="evenodd" d="M52 28a2 2 0 0 0-2 2v132a2 2 0 0 0 2 2h88a2 2 0 0 0 2-2V62h-28a6 6 0 0 1-6-6V28H52zm68 8.485L133.515 50H120V36.485zM38 30c0-7.732 6.268-14 14-14h62a6 6 0 0 1 4.243 1.757l34 34A6 6 0 0 1 154 56v106c0 7.732-6.268 14-14 14H52c-7.732 0-14-6.268-14-14V30z" fill="#000"/></svg>
